X: 11832
Q: "Moderate."
M: 3/4
L: 1/8
K: G
[|\
(B>A)c>B (e>d) | (f>g)(c2B2) | {B}A2G2F>G | G4z2 |\
d4(e>^c) | d4(e>^c) | (d2A2)B2 | (A2G2)F2 |\
d4e2 | (f2g2)f2 | ({f}e2d2)^c2 | (d2g2)f2 |\
d3g (fe) | e2(dc)(BA) | G2(A>B) (BA/B/) | c4z2 |\
(B>A)(c>B)(e>d) | f4g2 | ({f}e{d}c)B2A2 | G6 |]


